X: 17071
T: Heaton Chapel
R: reel
M: 4/4
K: Edorian
E2 B2 BAFB|BABc dedA|D2 A2 AGFA|BdAB FEDF|
E2 B2 BAFB|BABc dedB|A2 dA fedf|edBA (FG)FD|
E2 B2 BAFB|BABc dedA|D2 D2 AD D2|BdAB FEDF|
E2 B2 BAFB|BABc dedB|A2 dA fedf|edBA Be e2|
g2 e2 edBA|Be e2 edBe|dBAF AFDE|F/E/D FA dA A/B/d|
g2 e2 edBA|Beed edBe|dF F2 DEFA|dBAF BE E2|
g2 e2 edBA|Beed edBe|dBAF AFDE|F/E/D FA dA A/B/d|
e2 ef gb e/f/g|f2 ed dBAF|BABc dfed|d2 BA (FG)FD||

